X: 2017
T: Farewell.
%R: _
B: Henry Playford "Apollo's Banquet", London 1687 (5th Edition)
F: https://archive.org/details/apollosbanquetco01rugg
Z: 2017 John Chambers <jc:trillian.mit.edu>
M: 3/2
L: 1/8
K: D
% - - - - - - - - - -
F2 |\
G2 F4 E4 F2 | G2 E4 C4 F2 |\
G2 F4 E3 F G2 | (AB) E4 D4 :: c2 |\
d2 c4 B3 c d2 | (cB) (cd) (eB) c3 B A2 |\
(ab) (ag) (fb) ^g3 f g2 |
a2 a3 ^g a3 b (a>g) |\
(f>g) (f>e) (d>c) B3 c d2 | (c>B) (c>d) (e>A) c3 B A2 |\
(ab) (ag) (fb) (g3 f/g/) a>c | de fd Hd6 |]
% - - - - - - - - - -

%%sep 1 1 500
%%sep 1 1 500

